svgs/sharp-light/lightbulb-exclamation.svg

<svg xmlns="http://www.w3.org/2000/svg" viewBox="0 0 384 512"><!--! Font Awesome Pro 6.6.0 by @fontawesome - https://fontawesome.com License - https://fontawesome.com/license (Commercial License) Copyright 2024 Fonticons, Inc. --><path d="M336 176c0 30.6-9.5 58.8-25.7 82.1c-4.1 5.9-8.8 12.3-13.6 19c-12.7 17.5-27.1 37.2-38 57.1c-8.9 16.2-13.7 33.3-16.2 49.9l32.4 0c2.2-12 5.9-23.7 11.8-34.5c9.9-18 22.2-34.9 34.5-51.8c0 0 0 0 0 0s0 0 0 0s0 0 0 0c5.2-7.1 10.4-14.2 15.4-21.4c19.8-28.5 31.4-63 31.4-100.3C368 78.8 289.2 0 192 0S16 78.8 16 176c0 37.3 11.6 71.9 31.4 100.3c5 7.2 10.2 14.3 15.4 21.4c0 0 0 0 0 0s0 0 0 0s0 0 0 0c12.3 16.8 24.6 33.7 34.5 51.8c5.9 10.8 9.6 22.5 11.8 34.5l32.4 0c-2.5-16.6-7.3-33.7-16.2-49.9c-10.9-20-25.3-39.7-38-57.1c0 0 0 0 0 0c-4.9-6.7-9.5-13-13.6-19C57.5 234.8 48 206.6 48 176C48 96.5 112.5 32 192 32s144 64.5 144 144zM144 448l96 0 0 32-96 0 0-32zm-32 0l0 32 0 32 32 0 96 0 32 0 0-32 0-32 0-32-32 0-96 0-32 0 0 32zM208 96l-32 0 0 16 0 128 0 16 32 0 0-16 0-128 0-16zM168 336l48 0 0-48-48 0 0 48z"/></svg>

<svg xmlns="http://www.w3.org/2000/svg" viewBox="0 0 384 512"><!--! Font Awesome Pro 6.4.0 by @fontawesome - https://fontawesome.com License - https://fontawesome.com/license (Commercial License) Copyright 2023 Fonticons, Inc. --><path d="M336 176c0 30.6-9.5 58.8-25.7 82.1c-4.1 5.9-8.8 12.3-13.6 19c-12.7 17.5-27.1 37.2-38 57.1c-8.9 16.2-13.7 33.3-16.2 49.9H275c2.2-12 5.9-23.7 11.8-34.5c9.9-18 22.2-34.9 34.5-51.8l0 0 0 0 0 0c5.2-7.1 10.4-14.2 15.4-21.4c19.8-28.5 31.4-63 31.4-100.3C368 78.8 289.2 0 192 0S16 78.8 16 176c0 37.3 11.6 71.9 31.4 100.3c5 7.2 10.2 14.3 15.4 21.4l0 0 0 0 0 0c12.3 16.8 24.6 33.7 34.5 51.8c5.9 10.8 9.6 22.5 11.8 34.5h32.4c-2.5-16.6-7.3-33.7-16.2-49.9c-10.9-20-25.3-39.7-38-57.1l0 0c-4.9-6.7-9.5-13-13.6-19C57.5 234.8 48 206.6 48 176C48 96.5 112.5 32 192 32s144 64.5 144 144zM144 448h96v32H144V448zm-32 0v32 32h32 96 32V480 448 416H240 144 112v32zM208 96H176v16V240v16h32V240 112 96zM168 336h48V288H168v48z"/></svg>
